!!!SOCIAL_FUNCTION:	songs of the bear dance
!!!PDT:	1922
!!!OTL: No_15_Bear_Dance_Song_(k).krn
!!!REG: Southwest
!!!LANG: Non-Tone
!!!LING_GROUP: Uto-Aztecan
**kern
*staff1
=1-
=
*clefF4
*k[f#]
*M3/4
8B\L
8B\J
8A\L
8B\J
8A\L
8G\J
=2
8A\L
8A\J
8G\L
8A\J
8G\L
8D\J
=3
8F#\L
8D\J
8F#\L
8D\J
8F#\L
8D\J
=4
4D\
8BB/L
8D/J
4D\
=5
8F#\L
8D\J
8F#\L
8D\J
8F#\L
8D\J
=6
4D\
8BB/L
8D/J
4D\
==:|!
*-
